SVG_Azure_Grouped/Generic/Tick.svg

<?xml version="1.0" encoding="UTF-8" standalone="no"?>
<!-- Generated by Microsoft Visio, SVG Export Tick.svg Page-1 -->

<svg
   xmlns:dc="http://purl.org/dc/elements/1.1/"
   xmlns:cc="http://creativecommons.org/ns#"
   xmlns:rdf="http://www.w3.org/1999/02/22-rdf-syntax-ns#"
   xmlns:svg="http://www.w3.org/2000/svg"
   xmlns="http://www.w3.org/2000/svg"
   xmlns:sodipodi="http://sodipodi.sourceforge.net/DTD/sodipodi-0.dtd"
   xmlns:inkscape="http://www.inkscape.org/namespaces/inkscape"
   width="0.78740156in"
   height="0.78740156in"
   viewBox="0 0 56.692997 56.692997"
   xml:space="preserve"
   class="st3"
   version="1.1"
   id="svg24"
   sodipodi:docname="Tick.svg"
   style="font-size:12px;overflow:visible;color-interpolation-filters:sRGB;fill:none;fill-rule:evenodd;stroke-linecap:square;stroke-miterlimit:3"
   inkscape:version="0.92.5 (2060ec1f9f, 2020-04-08)"><metadata
   id="metadata30"><rdf:RDF><cc:Work
       rdf:about=""><dc:format>image/svg+xml</dc:format><dc:type
         rdf:resource="http://purl.org/dc/dcmitype/StillImage" /></cc:Work></rdf:RDF></metadata><defs
   id="defs28" /><sodipodi:namedview
   pagecolor="#ffffff"
   bordercolor="#666666"
   borderopacity="1"
   objecttolerance="10"
   gridtolerance="10"
   guidetolerance="10"
   inkscape:pageopacity="0"
   inkscape:pageshadow="2"
   inkscape:window-width="640"
   inkscape:window-height="480"
   id="namedview26"
   showgrid="false"
   inkscape:zoom="1.3289007"
   inkscape:cx="37.795279"
   inkscape:cy="37.794606"
   inkscape:window-x="0"
   inkscape:window-y="0"
   inkscape:window-maximized="0"
   inkscape:current-layer="svg24" />
	<style
   type="text/css"
   id="style2">
	<![CDATA[
		.st1 {fill:#57a300;stroke:none;stroke-linecap:butt;stroke-width:38.25}
		.st2 {fill:#ffffff;stroke:none;stroke-linecap:butt;stroke-width:38.25}
		.st3 {fill:none;fill-rule:evenodd;font-size:12px;overflow:visible;stroke-linecap:square;stroke-miterlimit:3}
	]]>
	</style>

	<g
   id="g22"
   transform="translate(-38.25,-38.2495)">
		<title
   id="title4">Page-1</title>
		<g
   id="group16459-1"
   transform="translate(38.25,-38.25)">
			<title
   id="title6">Tick.16459</title>
			<g
   id="group16460-2">
				<title
   id="title8">Sheet.16460</title>
				<g
   id="shape16461-3">
					<title
   id="title10">Sheet.16461</title>
					<circle
   cx="28.3465"
   cy="104.846"
   class="st1"
   id="ellipse12"
   r="28.3465"
   style="fill:#57a300;stroke:none;stroke-width:38.25;stroke-linecap:butt" />
				</g>
				<g
   id="shape16462-5"
   transform="translate(12.2051,-14.2165)">
					<title
   id="title15">Sheet.16462</title>
					<path
   d="m 0.38,120.09 a 1.43858,1.43858 0 0 1 0.08,-2.03 l 2.96,-2.74 a 1.44213,1.44213 0 0 1 2.02,0.08 l 7.57,8.12 13.49,-17.27 a 1.42441,1.42441 0 0 1 2,-0.26 l 3.21,2.47 c 0.62,0.46 0.75,1.34 0.29,1.97 l -17.25,22.08 a 1.77165,1.77165 0 0 1 -2.69,0.12 z"
   class="st2"
   id="path17"
   inkscape:connector-curvature="0"
   style="fill:#ffffff;stroke:none;stroke-width:38.25;stroke-linecap:butt" />
				</g>
			</g>
		</g>
	</g>
</svg>

<?xml version="1.0" encoding="UTF-8" standalone="no"?>
<!DOCTYPE svg PUBLIC "-//W3C//DTD SVG 1.1//EN" "http://www.w3.org/Graphics/SVG/1.1/DTD/svg11.dtd">
<!-- Generated by Microsoft Visio, SVG Export Tick.svg Page-1 -->
<svg xmlns="http://www.w3.org/2000/svg" xmlns:xlink="http://www.w3.org/1999/xlink" xmlns:ev="http://www.w3.org/2001/xml-events"
		width="1.8499in" height="1.8499in" viewBox="0 0 133.193 133.193" xml:space="preserve" color-interpolation-filters="sRGB"
		class="st3">
	<style type="text/css">
	<![CDATA[
		.st1 {fill:#57a300;stroke:none;stroke-linecap:butt;stroke-width:38.25}
		.st2 {fill:#ffffff;stroke:none;stroke-linecap:butt;stroke-width:38.25}
		.st3 {fill:none;fill-rule:evenodd;font-size:12px;overflow:visible;stroke-linecap:square;stroke-miterlimit:3}
	]]>
	</style>

	<g>
		<title>Page-1</title>
		<g id="group16076-1" transform="translate(38.25,-38.25)">
			<title>Tick.16076</title>
			<g id="group16077-2">
				<title>Sheet.16077</title>
				<g id="shape16078-3">
					<title>Sheet.16078</title>
					<ellipse cx="28.3465" cy="104.846" rx="28.3465" ry="28.3465" class="st1"/>
				</g>
				<g id="shape16079-5" transform="translate(12.2051,-14.2165)">
					<title>Sheet.16079</title>
					<path d="M0.38 120.09 A1.43858 1.43858 0 0 1 0.46 118.06 L3.42 115.32 A1.44213 1.44213 0 0 1 5.44 115.4 L13.01
								 123.52 L26.5 106.25 A1.42441 1.42441 0 0 1 28.5 105.99 L31.71 108.46 C32.33 108.92 32.46 109.8 32
								 110.43 L14.75 132.51 A1.77165 1.77165 0 0 1 12.06 132.63 L0.38 120.09 Z" class="st2"/>
				</g>
			</g>
		</g>
	</g>
</svg>
